src/icons/outline/symbols/pen.svg

<svg width="24" height="24" viewBox="0 0 24 24" fill="none" xmlns="http://www.w3.org/2000/svg">
<g clip-path="url(#clip0_402_726)">
<path d="M18.959 1C19.4904 0.996402 20.0179 1.09861 20.5098 1.2998C21.0015 1.50095 21.4487 1.79706 21.8252 2.17188L21.8271 2.17383C22.2022 2.5502 22.4989 2.99755 22.7002 3.48926C22.9015 3.98114 23.0036 4.50858 23 5.04004C22.9964 5.57142 22.8876 6.09689 22.6797 6.58594C22.4723 7.0737 22.1707 7.51599 21.792 7.88672L8.50293 21.1748C8.41583 21.2619 8.30682 21.3249 8.1875 21.3555L1.8584 22.9785C1.62305 23.0389 1.37298 22.9706 1.20117 22.7988C1.02938 22.627 0.961159 22.3769 1.02148 22.1416L2.64355 15.8125C2.67415 15.6931 2.73709 15.5842 2.82422 15.4971L16.1123 2.20801C16.4832 1.82935 16.9253 1.52762 17.4131 1.32031C17.9021 1.11253 18.4277 1.00365 18.959 1ZM2.6416 21.3584L7.22461 20.1826L3.81543 16.7754L2.6416 21.3584ZM4.61133 15.6523L8.34668 19.3867L20.3867 7.34668L16.6523 3.6123L4.61133 15.6523ZM18.9688 2.375C18.619 2.37737 18.2731 2.44916 17.9512 2.58594C17.8582 2.62544 17.7682 2.67107 17.6807 2.7207L21.2773 6.31738C21.327 6.22986 21.3745 6.14084 21.4141 6.04785C21.5509 5.72601 21.6226 5.37997 21.625 5.03027C21.6273 4.68072 21.5601 4.33428 21.4277 4.01074C21.2955 3.68748 21.1009 3.39305 20.8545 3.14551C20.6068 2.89917 20.3126 2.70453 19.9893 2.57227C19.6655 2.43984 19.3186 2.37264 18.9688 2.375Z" fill="#212121"/>
</g>
<defs>
<clipPath id="clip0_402_726">
<rect width="24" height="24" fill="white"/>
</clipPath>
</defs>
</svg>

<svg xmlns="http://www.w3.org/2000/svg" width="24" height="24" fill="none" viewBox="0 0 24 24"><g clip-path="url(#a)"><path fill="currentColor" d="M18.959 1a4.03 4.03 0 0 1 2.866 1.172l.002.002a4.02 4.02 0 0 1-.035 5.713L8.502 21.175a.7.7 0 0 1-.315.18L1.859 22.98a.688.688 0 0 1-.837-.837l1.623-6.33a.7.7 0 0 1 .18-.315l13.287-13.29A4.02 4.02 0 0 1 18.96 1M2.642 21.358l4.583-1.175-3.41-3.408zm1.97-5.706 3.735 3.735 12.04-12.04-3.735-3.735zM18.968 2.375a2.65 2.65 0 0 0-1.288.346l3.596 3.596q.077-.13.137-.27a2.65 2.65 0 0 0-.56-2.901 2.65 2.65 0 0 0-1.885-.771"/></g><defs><clipPath id="a"><path fill="currentColor" d="M0 0h24v24H0z"/></clipPath></defs></svg>
